X:1
T:Glad Tidings
T:Asa Hull
T:Glad Tidings
T:Public Domain
T:Public Domain
C:Asa Hull
Z:Public Domain
%%score ( 1 2 ) ( 3 4 )
L:1/8
M:4/4
K:G
V:1 treble 
V:2 treble 
V:3 bass 
V:4 bass 
V:1
 G2 [GB]>[Ac] [Bd]3 [GB] | [Gc]2 [Ge]2 [Gd]3 [Gc] | [GB]2 [DG]2 E>[EF] [EG][EA] | [^DB]6 z2 | %4
w: 1.~While shep- herds on the|ern plain Were keep-|ing faith- ful watch by night,|bursts|
w: 2.~With wing- èd speed, the|gel choir, De- scend-|ing on their shin- ing way,|with|
w: 3.~“Glad tid- ings of great|we bring, Good news|to you and all man- kind;|Beth-|
w: 4.~Whilst list- ening to the|turous song, New voic-|es min- gled in the strain,|sud-|
 B2 B>B [Gd]3 [Gd] | [G^c]2 [Gd]2 [Ge]3 [Ge] | [Gd]2 [GB]2 [Bd]>[Ac] [GB][FA] | G6 z2 || %8
w: the soul- in- spir- ing|l’hem’s star beamed on|their sight. * * * *||
w: new theme the tune- ful|was turned to bright-|ening day. Glo- ry to God!|Glo-|
w: le- hem, lo! Christ your|a man- ger you|shall find.” * * * *||
w: den- ly the might- y|the thrill- ing, glad|re- frain. * * * *||
"^Refrain" [Ge]2 [Ge]>[Ge] [Gd]2 z2 | [Ac]2 [Ac]>[Ac] [GB]2 z2 | [EB]2 [Ed]>[Ec] [DB]2 [DG]>[DG] | %11
w: |||
w: to God! Glo- ry|to God for re-|demp- tion’s plan; Glo- ry to|
w: |||
w: |||
 [DF]2 [DG]2 [DA]2 z2 | B2 A>G (z G G2) | B2 A>G (z G G2) | [Gd]2 [G^c]>[Gc] (dB)G[GA] | %15
w: ||||
w: God! Glo- ry|to God! Glo- * *|* to God * *|good- will to man! * * *|
w: ||||
w: ||||
 [GB]2 [FA]2 G4 |] %16
w: |
w: |
w: |
w: |
V:2
 G2 x6 | x8 | x4 E3/2 x5/2 | x8 | B2 B>B x4 | x8 | x8 | G6 x2 || x8 | x8 | x8 | x8 | x4 d4 | %13
w: east-||Loud||strain, As Beth-|||||||||
w: an-||Struck||lyre, And night|||ry|||||ry|
w: joy||In||King, Laid in|||||||||
w: rap-||And||throng, Caught up|||||||||
 x4 e4 | x4 G2 G x | x4 G4 |] %16
w: |||
w: and|||
w: |||
w: |||
V:3
 [G,B,]2 [G,D]>[G,D] [G,D]3 [G,D] | [E,C]2 [C,C]2 [G,B,]3 [G,E] | %2
w: ~ ~ ~ ~ ~|~ ~ ~ ~|
 [G,D]2 [B,,C]2 [C,G,]>[C,G,] [C,G,][C,E,] | [B,,F,]6 z2 | B,2 B,>B, [G,B,]3 [G,B,] | %5
w: ~ ~ ~ ~ ~ ~|~|~ ~ ~ ~ ~|
 [G,^A,]2 [G,B,]2 [C,C]3 [C,C] | [G,B,]2 [G,D]2 [D,D]>[D,D] [D,D][D,C] | [G,B,]6 z2 || %8
w: ~ ~ ~ ~|~ ~ ~ ~ ~ ~|~|
 (C,D,) [E,C]>[C,C] [G,B,]2 z2 | (D,E,) [F,D]>[D,D] [G,D]2 z2 | %10
w: ~ * ~ ~ ~|~ * ~ ~ ~|
 [E,G,]2 [C,G,]>[C,G,] [D,G,]2 [D,B,]>[D,B,] | [D,A,]2 [D,B,]2 [D,C]2 z2 | z4 z [G,B,] [G,B,]2 | %13
w: ~ ~ ~ ~ to God!|to God! *||
 z4 z [C,C] [C,C]2 | [D,B,]2 [_E,^A,]>[E,A,] [D,B,]2 [=E,^C][E,C] | [D,D]2 [D,C]2 [G,B,]4 |] %16
w: |||
V:4
 x8 | x8 | x8 | x8 | B,2 B,>B, x4 | x8 | x8 | x8 || C2 x6 | D2 x6 | x8 | x8 | x8 | x8 | x8 | x8 |] %16
w: ||||~ ~ ~||||~|~|||||||

